X:1
T:Langdale (Somervell), 75.75.77
T:Langdale (Somervell), 75.75.77
T:Arthur Somervell (1863-1937)
T:Public Domain Courtesy of the Cyber Hymnal™
C:Arthur Somervell (1863-1937)
Z:Public Domain
Z:Courtesy of the Cyber Hymnal™
%%score ( 1 2 ) ( 3 4 )
L:1/8
Q:1/4=110
M:4/4
K:Eb
V:1 treble 
V:2 treble 
V:3 bass 
V:4 bass 
V:1
 [EG]2 [EG]2 [EB]2 E2 | [EF]2 (GA) [EG]4 | [F=A]2 ([FB][Gc]) [Fd]2 c2 | (B4 A4) | %4
 [EG]2 [EG]2 [EB]2 [EB]2 | [EF]2 (GA) [EG]4 | [EG]2 [E=A]2 [DB]2 A2 | [B,G]6 z2 | %8
 [EB]2 [Ec]2 [F_d]2 [Ec]2 | [DB]2 (GF) (E2 F2) | [EG]2 [EA]2 [EB]2 [Ec]2 | [EF]2 [DF]2 E4 |] %12
V:2
 x6 E2 | x2 D2 x4 | x6 (FE) | D8 | x8 | x2 D2 x4 | x6 (DC) | x8 | x8 | x2 D2 E4 | x8 | x4 E4 |] %12
V:3
 [E,B,]2 [E,B,]2 [G,B,]2 [G,B,]2 | [A,C]2 B,2 [E,B,]4 | [E,C]2 B,2 [F,B,]2 [F,=A,]2 | [B,,B,]8 | %4
 [E,B,]2 [E,B,]2 [G,B,]2 [G,B,]2 | [A,C]2 B,2 [E,B,]4 | [E,G,]2 [C,G,]2 [D,G,]2 [D,^F,]2 | %7
 [G,,G,]6 z2 | [E,G,]2 [A,,A,]2 [_D,A,]2 [A,,A,]2 | [B,,F,]2 (B,A,) (G,2 A,2) | %10
 [B,,B,]2 [A,,C]2 [G,,B,]2 [F,,A,]2 | [B,,A,]2 (B,A,) [E,G,]4 |] %12
V:4
 x8 | x2 B,2 x4 | x2 (D,E,) x4 | x8 | x8 | x2 B,2 x4 | x8 | x8 | x8 | x2 B,,2 C,4 | x8 | %11
 x2 B,,2 x4 |] %12

